status/symbolic/adw-tab-counter-symbolic.svg

<?xml version="1.0" encoding="UTF-8" standalone="no"?>
<svg
   height="16"
   width="16"
   version="1.1"
   id="svg6"
   xmlns="http://www.w3.org/2000/svg"
   xmlns:svg="http://www.w3.org/2000/svg">
  <defs
     id="defs10" />
  <path
     id="rect322"
     style="opacity:1;fill:#555761;stroke:none;stroke-width:1;stroke-linecap:round;-inkscape-stroke:none;stop-color:#000000"
     d="M 3,1 C 1.8920022,1 1,1.8920022 1,3 v 10 c 0,1.107998 0.8920022,2 2,2 h 10 c 1.107998,0 2,-0.892002 2,-2 V 3 C 15,1.8920022 14.107998,1 13,1 Z m 0,1 h 10 c 0.553998,0 1,0.4460012 1,1 v 10 c 0,0.553998 -0.446002,1 -1,1 H 3 C 2.4460012,14 2,13.553998 2,13 V 3 C 2,2.4460012 2.4460012,2 3,2 Z" />
</svg>

<svg
        xmlns='http://www.w3.org/2000/svg'
        xmlns:svg='http://www.w3.org/2000/svg'
        id='svg6'
        width='16'
        height='16'>
  <path
          id='rect322'
          opacity='1'
          fill='url(#gpa:foreground) #555761'
          fill-opacity='1'
          fill-rule='nonzero'
          stroke='none'
          stroke-width='1'
          stroke-linecap='round'
          d='M 3 1 C 1.892 1, 1 1.892, 1 3 L 1 13 C 1 14.108, 1.892 15, 3 15 L 13 15 C 14.108 15, 15 14.108, 15 13 L 15 3 C 15 1.892, 14.108 1, 13 1 Z M 3 2 L 13 2 C 13.554 2, 14 2.446, 14 3 L 14 13 C 14 13.554, 13.554 14, 13 14 L 3 14 C 2.446 14, 2 13.554, 2 13 L 2 3 C 2 2.446, 2.446 2, 3 2 Z'
          class="foreground">
  </path>
</svg>
